X:0
T:Ashokan Farewell
C:Jay Ungar
M:3/4
L:1/8
K:D
Ac | "1"  d3 c BA  | "C(left)"F4 EF    | G3 F ED | {A}B2 d3 B |\
     "5"  A2 d2 f2 | a2 f2 d2 | "a"f3 gf2   | {d}e4 (4A` ABc   |
     "9"  d3 c BA  | F4 EF    | G3 F ED | B2 d3 B |\
     "13" A2 d2 f2 | a2 f2 d2 | A3 c e2 | {^c}d4     :|
FG | "17" A3 F D2  | {e}d4 A2    | B3 c d2 | {B}A2 F3 E |\
     "21" F2 E2 D2 | "a"B4 G2    | "p(F#)"A4 E2   | "p(F#)"A4 FE   |
     "25" D2 F2 A2 | {d}=c6      | B3 c d2 | {B}A2 F3 d |
[1   F2 D2 F2 | A2 d2 f2 | e3 d c2 | {e}d4     :|
[2   FD FA df | "a"a2 f2 d2 | e3 A c2 | {e}d4     |]
